X: 89
T:Planxty Hewlett
T:A Fine Toast To Hewlett
T:Slainte Bhreagh Hiulit (Hewlett)
F:http://blackrosetheband.googlepages.com/ABCTUNES.ABC May 2009
M:3/4
L:1/8
R:waltz
K:Dmaj
T:Part A
A2|"D"D2 D2 FG|"A"AB c2 A2|"D"d2 f2 fg|fe d3B|
A2 F2 F2|"G"G2 GBAG|"D"AF D2 D2|D4:||
T:Part B
|:AB | "D"A2 D2 AB|A2 D2 AB|A2 d2 d2|dc BA GF|
"G"G2 G,2 GA|G2 G,2 GA|G2 GA BG|"D"AF D3E|
FE F2 G2|"A"AB c2 A2|"D"fe fg ag|fe d3B|
A2 F2 F2|"G"G3A BG|"D"AF D2 D2|D4:||

